X: 15
T:Shepherds' Hey, Bucknell (BC)
M:2/2
L:1/8
R:Hornpipe
A:Bucknell
P:A(AB)4
K:F
P:A
ABcA B2B2|ABcA G4|ABcA B2AB|c2C2 F4||
P:B
A2F2 G4  |A2F2 G4|A2c2 B2d2|c2C2 F4||
